profiles/cal/cse_080nits_amd.cal
CAL
ORIGINATOR "vcgt"
DEVICE_CLASS "DISPLAY"
COLOR_REP "RGB"
NUMBER_OF_FIELDS 4
BEGIN_DATA_FORMAT
RGB_I RGB_R RGB_G RGB_B
END_DATA_FORMAT
NUMBER_OF_SETS 1024
BEGIN_DATA
0.0000 0.0000 0.0000 0.0000
0.0010 0.0124 0.0124 0.0124
0.0020 0.0248 0.0248 0.0248
0.0029 0.0373 0.0373 0.0373
0.0039 0.0497 0.0497 0.0497
0.0049 0.0585 0.0585 0.0585
0.0059 0.0672 0.0672 0.0672
0.0068 0.0760 0.0760 0.0760
0.0078 0.0847 0.0847 0.0847
0.0088 0.0912 0.0912 0.0912
0.0098 0.0976 0.0976 0.0976
0.0108 0.1041 0.1041 0.1041
0.0117 0.1105 0.1105 0.1105
0.0127 0.1158 0.1158 0.1158
0.0137 0.1210 0.1210 0.1210
0.0147 0.1263 0.1263 0.1263
0.0156 0.1316 0.1316 0.1316
0.0166 0.1361 0.1361 0.1361
0.0176 0.1407 0.1407 0.1407
0.0186 0.1452 0.1452 0.1452
0.0196 0.1497 0.1497 0.1497
0.0205 0.1538 0.1538 0.1538
0.0215 0.1578 0.1578 0.1578
0.0225 0.1619 0.1619 0.1619
0.0235 0.1659 0.1659 0.1659
0.0244 0.1696 0.1696 0.1696
0.0254 0.1732 0.1732 0.1732
0.0264 0.1769 0.1769 0.1769
0.0274 0.1806 0.1806 0.1806
0.0283 0.1839 0.1839 0.1839
0.0293 0.1873 0.1873 0.1873
0.0303 0.1907 0.1907 0.1907
0.0313 0.1940 0.1940 0.1940
0.0323 0.1972 0.1972 0.1972
0.0332 0.2003 0.2003 0.2003
0.0342 0.2034 0.2034 0.2034
0.0352 0.2066 0.2066 0.2066
0.0362 0.2095 0.2095 0.2095
0.0371 0.2124 0.2124 0.2124
0.0381 0.2154 0.2154 0.2154
0.0391 0.2183 0.2183 0.2183
0.0401 0.2211 0.2211 0.2211
0.0411 0.2239 0.2239 0.2239
0.0420 0.2266 0.2266 0.2266
0.0430 0.2294 0.2294 0.2294
0.0440 0.2320 0.2320 0.2320
0.0450 0.2346 0.2346 0.2346
0.0459 0.2373 0.2373 0.2373
0.0469 0.2399 0.2399 0.2399
0.0479 0.2424 0.2424 0.2424
0.0489 0.2449 0.2449 0.2449
0.0499 0.2474 0.2474 0.2474
0.0508 0.2499 0.2499 0.2499
0.0518 0.2523 0.2523 0.2523
0.0528 0.2547 0.2547 0.2547
0.0538 0.2571 0.2571 0.2571
0.0547 0.2594 0.2594 0.2594
0.0557 0.2617 0.2617 0.2617
0.0567 0.2640 0.2640 0.2640
0.0577 0.2663 0.2663 0.2663
0.0587 0.2686 0.2686 0.2686
0.0596 0.2708 0.2708 0.2708
0.0606 0.2730 0.2730 0.2730
0.0616 0.2752 0.2752 0.2752
0.0626 0.2774 0.2774 0.2774
0.0635 0.2796 0.2796 0.2796
0.0645 0.2817 0.2817 0.2817
0.0655 0.2838 0.2838 0.2838
0.0665 0.2859 0.2859 0.2859
0.0674 0.2880 0.2880 0.2880
0.0684 0.2901 0.2901 0.2901
0.0694 0.2921 0.2921 0.2921
0.0704 0.2942 0.2942 0.2942
0.0714 0.2962 0.2962 0.2962
0.0723 0.2981 0.2981 0.2981
0.0733 0.3001 0.3001 0.3001
0.0743 0.3021 0.3021 0.3021
0.0753 0.3040 0.3040 0.3040
0.0762 0.3060 0.3060 0.3060
0.0772 0.3079 0.3079 0.3079
0.0782 0.3098 0.3098 0.3098
0.0792 0.3117 0.3117 0.3117
0.0802 0.3136 0.3136 0.3136
0.0811 0.3154 0.3154 0.3154
0.0821 0.3173 0.3173 0.3173
0.0831 0.3191 0.3191 0.3191
0.0841 0.3210 0.3210 0.3210
0.0850 0.3228 0.3228 0.3228
0.0860 0.3246 0.3246 0.3246
0.0870 0.3264 0.3264 0.3264
0.0880 0.3282 0.3282 0.3282
0.0890 0.3299 0.3299 0.3299
0.0899 0.3317 0.3317 0.3317
0.0909 0.3334 0.3334 0.3334
0.0919 0.3352 0.3352 0.3352
0.0929 0.3369 0.3369 0.3369
0.0938 0.3386 0.3386 0.3386
0.0948 0.3403 0.3403 0.3403
0.0958 0.3420 0.3420 0.3420
0.0968 0.3437 0.3437 0.3437
0.0978 0.3454 0.3454 0.3454
0.0987 0.3470 0.3470 0.3470
0.0997 0.3487 0.3487 0.3487
0.1007 0.3503 0.3503 0.3503
0.1017 0.3520 0.3520 0.3520
0.1026 0.3536 0.3536 0.3536
0.1036 0.3552 0.3552 0.3552
0.1046 0.3568 0.3568 0.3568
0.1056 0.3584 0.3584 0.3584
0.1065 0.3600 0.3600 0.3600
0.1075 0.3616 0.3616 0.3616
0.1085 0.3632 0.3632 0.3632
0.1095 0.3647 0.3647 0.3647
0.1105 0.3663 0.3663 0.3663
0.1114 0.3678 0.3678 0.3678
0.1124 0.3694 0.3694 0.3694
0.1134 0.3709 0.3709 0.3709
0.1144 0.3724 0.3724 0.3724
0.1153 0.3740 0.3740 0.3740
0.1163 0.3755 0.3755 0.3755
0.1173 0.3770 0.3770 0.3770
0.1183 0.3785 0.3785 0.3785
0.1193 0.3800 0.3800 0.3800
0.1202 0.3814 0.3814 0.3814
0.1212 0.3829 0.3829 0.3829
0.1222 0.3844 0.3844 0.3844
0.1232 0.3858 0.3858 0.3858
0.1241 0.3873 0.3873 0.3873
0.1251 0.3887 0.3887 0.3887
0.1261 0.3902 0.3902 0.3902
0.1271 0.3916 0.3916 0.3916
0.1281 0.3930 0.3930 0.3930
0.1290 0.3945 0.3945 0.3945
0.1300 0.3959 0.3959 0.3959
0.1310 0.3973 0.3973 0.3973
0.1320 0.3987 0.3987 0.3987
0.1329 0.4001 0.4001 0.4001
0.1339 0.4015 0.4015 0.4015
0.1349 0.4029 0.4029 0.4029
0.1359 0.4043 0.4043 0.4043
0.1369 0.4056 0.4056 0.4056
0.1378 0.4070 0.4070 0.4070
0.1388 0.4084 0.4084 0.4084
0.1398 0.4097 0.4097 0.4097
0.1408 0.4111 0.4111 0.4111
0.1417 0.4124 0.4124 0.4124
0.1427 0.4138 0.4138 0.4138
0.1437 0.4151 0.4151 0.4151
0.1447 0.4164 0.4164 0.4164
0.1457 0.4177 0.4177 0.4177
0.1466 0.4191 0.4191 0.4191
0.1476 0.4204 0.4204 0.4204
0.1486 0.4217 0.4217 0.4217
0.1496 0.4230 0.4230 0.4230
0.1505 0.4243 0.4243 0.4243
0.1515 0.4256 0.4256 0.4256
0.1525 0.4269 0.4269 0.4269
0.1535 0.4282 0.4282 0.4282
0.1544 0.4294 0.4294 0.4294
0.1554 0.4307 0.4307 0.4307
0.1564 0.4320 0.4320 0.4320
0.1574 0.4333 0.4333 0.4333
0.1584 0.4345 0.4345 0.4345
0.1593 0.4358 0.4358 0.4358
0.1603 0.4370 0.4370 0.4370
0.1613 0.4383 0.4383 0.4383
0.1623 0.4395 0.4395 0.4395
0.1632 0.4407 0.4407 0.4407
0.1642 0.4420 0.4420 0.4420
0.1652 0.4432 0.4432 0.4432
0.1662 0.4444 0.4444 0.4444
0.1672 0.4457 0.4457 0.4457
0.1681 0.4469 0.4469 0.4469
0.1691 0.4481 0.4481 0.4481
0.1701 0.4493 0.4493 0.4493
0.1711 0.4505 0.4505 0.4505
0.1720 0.4517 0.4517 0.4517
0.1730 0.4529 0.4529 0.4529
0.1740 0.4541 0.4541 0.4541
0.1750 0.4553 0.4553 0.4553
0.1760 0.4565 0.4565 0.4565
0.1769 0.4577 0.4577 0.4577
0.1779 0.4588 0.4588 0.4588
0.1789 0.4600 0.4600 0.4600
0.1799 0.4612 0.4612 0.4612
0.1808 0.4624 0.4624 0.4624
0.1818 0.4635 0.4635 0.4635
0.1828 0.4647 0.4647 0.4647
0.1838 0.4658 0.4658 0.4658
0.1848 0.4670 0.4670 0.4670
0.1857 0.4681 0.4681 0.4681
0.1867 0.4693 0.4693 0.4693
0.1877 0.4704 0.4704 0.4704
0.1887 0.4716 0.4716 0.4716
0.1896 0.4727 0.4727 0.4727
0.1906 0.4738 0.4738 0.4738
0.1916 0.4750 0.4750 0.4750
0.1926 0.4761 0.4761 0.4761
0.1935 0.4772 0.4772 0.4772
0.1945 0.4783 0.4783 0.4783
0.1955 0.4794 0.4794 0.4794
0.1965 0.4806 0.4806 0.4806
0.1975 0.4817 0.4817 0.4817
0.1984 0.4828 0.4828 0.4828
0.1994 0.4839 0.4839 0.4839
0.2004 0.4850 0.4850 0.4850
0.2014 0.4861 0.4861 0.4861
0.2023 0.4872 0.4872 0.4872
0.2033 0.4882 0.4882 0.4882
0.2043 0.4893 0.4893 0.4893
0.2053 0.4904 0.4904 0.4904
0.2063 0.4915 0.4915 0.4915
0.2072 0.4926 0.4926 0.4926
0.2082 0.4936 0.4936 0.4936
0.2092 0.4947 0.4947 0.4947
0.2102 0.4958 0.4958 0.4958
0.2111 0.4969 0.4969 0.4969
0.2121 0.4979 0.4979 0.4979
0.2131 0.4990 0.4990 0.4990
0.2141 0.5000 0.5000 0.5000
0.2151 0.5011 0.5011 0.5011
0.2160 0.5021 0.5021 0.5021
0.2170 0.5032 0.5032 0.5032
0.2180 0.5042 0.5042 0.5042
0.2190 0.5053 0.5053 0.5053
0.2199 0.5063 0.5063 0.5063
0.2209 0.5074 0.5074 0.5074
0.2219 0.5084 0.5084 0.5084
0.2229 0.5094 0.5094 0.5094
0.2239 0.5105 0.5105 0.5105
0.2248 0.5115 0.5115 0.5115
0.2258 0.5125 0.5125 0.5125
0.2268 0.5135 0.5135 0.5135
0.2278 0.5146 0.5146 0.5146
0.2287 0.5156 0.5156 0.5156
0.2297 0.5166 0.5166 0.5166
0.2307 0.5176 0.5176 0.5176
0.2317 0.5186 0.5186 0.5186
0.2326 0.5196 0.5196 0.5196
0.2336 0.5206 0.5206 0.5206
0.2346 0.5216 0.5216 0.5216
0.2356 0.5226 0.5226 0.5226
0.2366 0.5236 0.5236 0.5236
0.2375 0.5246 0.5246 0.5246
0.2385 0.5256 0.5256 0.5256
0.2395 0.5266 0.5266 0.5266
0.2405 0.5276 0.5276 0.5276
0.2414 0.5286 0.5286 0.5286
0.2424 0.5296 0.5296 0.5296
0.2434 0.5305 0.5305 0.5305
0.2444 0.5315 0.5315 0.5315
0.2454 0.5325 0.5325 0.5325
0.2463 0.5335 0.5335 0.5335
0.2473 0.5344 0.5344 0.5344
0.2483 0.5354 0.5354 0.5354
0.2493 0.5364 0.5364 0.5364
0.2502 0.5373 0.5373 0.5373
0.2512 0.5383 0.5383 0.5383
0.2522 0.5393 0.5393 0.5393
0.2532 0.5402 0.5402 0.5402
0.2542 0.5412 0.5412 0.5412
0.2551 0.5421 0.5421 0.5421
0.2561 0.5431 0.5431 0.5431
0.2571 0.5440 0.5440 0.5440
0.2581 0.5450 0.5450 0.5450
0.2590 0.5459 0.5459 0.5459
0.2600 0.5469 0.5469 0.5469
0.2610 0.5478 0.5478 0.5478
0.2620 0.5488 0.5488 0.5488
0.2630 0.5497 0.5497 0.5497
0.2639 0.5506 0.5506 0.5506
0.2649 0.5516 0.5516 0.5516
0.2659 0.5525 0.5525 0.5525
0.2669 0.5534 0.5534 0.5534
0.2678 0.5543 0.5543 0.5543
0.2688 0.5553 0.5553 0.5553
0.2698 0.5562 0.5562 0.5562
0.2708 0.5571 0.5571 0.5571
0.2717 0.5580 0.5580 0.5580
0.2727 0.5590 0.5590 0.5590
0.2737 0.5599 0.5599 0.5599
0.2747 0.5608 0.5608 0.5608
0.2757 0.5617 0.5617 0.5617
0.2766 0.5626 0.5626 0.5626
0.2776 0.5635 0.5635 0.5635
0.2786 0.5644 0.5644 0.5644
0.2796 0.5653 0.5653 0.5653
0.2805 0.5662 0.5662 0.5662
0.2815 0.5671 0.5671 0.5671
0.2825 0.5680 0.5680 0.5680
0.2835 0.5689 0.5689 0.5689
0.2845 0.5698 0.5698 0.5698
0.2854 0.5707 0.5707 0.5707
0.2864 0.5716 0.5716 0.5716
0.2874 0.5725 0.5725 0.5725
0.2884 0.5734 0.5734 0.5734
0.2893 0.5743 0.5743 0.5743
0.2903 0.5752 0.5752 0.5752
0.2913 0.5760 0.5760 0.5760
0.2923 0.5769 0.5769 0.5769
0.2933 0.5778 0.5778 0.5778
0.2942 0.5787 0.5787 0.5787
0.2952 0.5796 0.5796 0.5796
0.2962 0.5804 0.5804 0.5804
0.2972 0.5813 0.5813 0.5813
0.2981 0.5822 0.5822 0.5822
0.2991 0.5830 0.5830 0.5830
0.3001 0.5839 0.5839 0.5839
0.3011 0.5848 0.5848 0.5848
0.3021 0.5856 0.5856 0.5856
0.3030 0.5865 0.5865 0.5865
0.3040 0.5874 0.5874 0.5874
0.3050 0.5882 0.5882 0.5882
0.3060 0.5891 0.5891 0.5891
0.3069 0.5899 0.5899 0.5899
0.3079 0.5908 0.5908 0.5908
0.3089 0.5917 0.5917 0.5917
0.3099 0.5925 0.5925 0.5925
0.3109 0.5934 0.5934 0.5934
0.3118 0.5942 0.5942 0.5942
0.3128 0.5951 0.5951 0.5951
0.3138 0.5959 0.5959 0.5959
0.3148 0.5967 0.5967 0.5967
0.3157 0.5976 0.5976 0.5976
0.3167 0.5984 0.5984 0.5984
0.3177 0.5993 0.5993 0.5993
0.3187 0.6001 0.6001 0.6001
0.3196 0.6009 0.6009 0.6009
0.3206 0.6018 0.6018 0.6018
0.3216 0.6026 0.6026 0.6026
0.3226 0.6034 0.6034 0.6034
0.3236 0.6043 0.6043 0.6043
0.3245 0.6051 0.6051 0.6051
0.3255 0.6059 0.6059 0.6059
0.3265 0.6068 0.6068 0.6068
0.3275 0.6076 0.6076 0.6076
0.3284 0.6084 0.6084 0.6084
0.3294 0.6092 0.6092 0.6092
0.3304 0.6100 0.6100 0.6100
0.3314 0.6109 0.6109 0.6109
0.3324 0.6117 0.6117 0.6117
0.3333 0.6125 0.6125 0.6125
0.3343 0.6133 0.6133 0.6133
0.3353 0.6141 0.6141 0.6141
0.3363 0.6149 0.6149 0.6149
0.3372 0.6158 0.6158 0.6158
0.3382 0.6166 0.6166 0.6166
0.3392 0.6174 0.6174 0.6174
0.3402 0.6182 0.6182 0.6182
0.3412 0.6190 0.6190 0.6190
0.3421 0.6198 0.6198 0.6198
0.3431 0.6206 0.6206 0.6206
0.3441 0.6214 0.6214 0.6214
0.3451 0.6222 0.6222 0.6222
0.3460 0.6230 0.6230 0.6230
0.3470 0.6238 0.6238 0.6238
0.3480 0.6246 0.6246 0.6246
0.3490 0.6254 0.6254 0.6254
0.3500 0.6262 0.6262 0.6262
0.3509 0.6270 0.6270 0.6270
0.3519 0.6278 0.6278 0.6278
0.3529 0.6285 0.6285 0.6285
0.3539 0.6293 0.6293 0.6293
0.3548 0.6301 0.6301 0.6301
0.3558 0.6309 0.6309 0.6309
0.3568 0.6317 0.6317 0.6317
0.3578 0.6325 0.6325 0.6325
0.3587 0.6333 0.6333 0.6333
0.3597 0.6340 0.6340 0.6340
0.3607 0.6348 0.6348 0.6348
0.3617 0.6356 0.6356 0.6356
0.3627 0.6364 0.6364 0.6364
0.3636 0.6371 0.6371 0.6371
0.3646 0.6379 0.6379 0.6379
0.3656 0.6387 0.6387 0.6387
0.3666 0.6395 0.6395 0.6395
0.3675 0.6402 0.6402 0.6402
0.3685 0.6410 0.6410 0.6410
0.3695 0.6418 0.6418 0.6418
0.3705 0.6425 0.6425 0.6425
0.3715 0.6433 0.6433 0.6433
0.3724 0.6441 0.6441 0.6441
0.3734 0.6448 0.6448 0.6448
0.3744 0.6456 0.6456 0.6456
0.3754 0.6464 0.6464 0.6464
0.3763 0.6471 0.6471 0.6471
0.3773 0.6479 0.6479 0.6479
0.3783 0.6486 0.6486 0.6486
0.3793 0.6494 0.6494 0.6494
0.3803 0.6502 0.6502 0.6502
0.3812 0.6509 0.6509 0.6509
0.3822 0.6517 0.6517 0.6517
0.3832 0.6524 0.6524 0.6524
0.3842 0.6532 0.6532 0.6532
0.3851 0.6539 0.6539 0.6539
0.3861 0.6547 0.6547 0.6547
0.3871 0.6554 0.6554 0.6554
0.3881 0.6562 0.6562 0.6562
0.3891 0.6569 0.6569 0.6569
0.3900 0.6576 0.6576 0.6576
0.3910 0.6584 0.6584 0.6584
0.3920 0.6591 0.6591 0.6591
0.3930 0.6599 0.6599 0.6599
0.3939 0.6606 0.6606 0.6606
0.3949 0.6614 0.6614 0.6614
0.3959 0.6621 0.6621 0.6621
0.3969 0.6628 0.6628 0.6628
0.3978 0.6636 0.6636 0.6636
0.3988 0.6643 0.6643 0.6643
0.3998 0.6650 0.6650 0.6650
0.4008 0.6658 0.6658 0.6658
0.4018 0.6665 0.6665 0.6665
0.4027 0.6672 0.6672 0.6672
0.4037 0.6680 0.6680 0.6680
0.4047 0.6687 0.6687 0.6687
0.4057 0.6694 0.6694 0.6694
0.4066 0.6701 0.6701 0.6701
0.4076 0.6709 0.6709 0.6709
0.4086 0.6716 0.6716 0.6716
0.4096 0.6723 0.6723 0.6723
0.4106 0.6730 0.6730 0.6730
0.4115 0.6738 0.6738 0.6738
0.4125 0.6745 0.6745 0.6745
0.4135 0.6752 0.6752 0.6752
0.4145 0.6759 0.6759 0.6759
0.4154 0.6766 0.6766 0.6766
0.4164 0.6774 0.6774 0.6774
0.4174 0.6781 0.6781 0.6781
0.4184 0.6788 0.6788 0.6788
0.4194 0.6795 0.6795 0.6795
0.4203 0.6802 0.6802 0.6802
0.4213 0.6809 0.6809 0.6809
0.4223 0.6816 0.6816 0.6816
0.4233 0.6824 0.6824 0.6824
0.4242 0.6831 0.6831 0.6831
0.4252 0.6838 0.6838 0.6838
0.4262 0.6845 0.6845 0.6845
0.4272 0.6852 0.6852 0.6852
0.4282 0.6859 0.6859 0.6859
0.4291 0.6866 0.6866 0.6866
0.4301 0.6873 0.6873 0.6873
0.4311 0.6880 0.6880 0.6880
0.4321 0.6887 0.6887 0.6887
0.4330 0.6894 0.6894 0.6894
0.4340 0.6901 0.6901 0.6901
0.4350 0.6908 0.6908 0.6908
0.4360 0.6915 0.6915 0.6915
0.4370 0.6922 0.6922 0.6922
0.4379 0.6929 0.6929 0.6929
0.4389 0.6936 0.6936 0.6936
0.4399 0.6943 0.6943 0.6943
0.4409 0.6950 0.6950 0.6950
0.4418 0.6957 0.6957 0.6957
0.4428 0.6964 0.6964 0.6964
0.4438 0.6970 0.6970 0.6970
0.4448 0.6977 0.6977 0.6977
0.4457 0.6984 0.6984 0.6984
0.4467 0.6991 0.6991 0.6991
0.4477 0.6998 0.6998 0.6998
0.4487 0.7005 0.7005 0.7005
0.4497 0.7012 0.7012 0.7012
0.4506 0.7019 0.7019 0.7019
0.4516 0.7025 0.7025 0.7025
0.4526 0.7032 0.7032 0.7032
0.4536 0.7039 0.7039 0.7039
0.4545 0.7046 0.7046 0.7046
0.4555 0.7053 0.7053 0.7053
0.4565 0.7059 0.7059 0.7059
0.4575 0.7066 0.7066 0.7066
0.4585 0.7073 0.7073 0.7073
0.4594 0.7080 0.7080 0.7080
0.4604 0.7087 0.7087 0.7087
0.4614 0.7093 0.7093 0.7093
0.4624 0.7100 0.7100 0.7100
0.4633 0.7107 0.7107 0.7107
0.4643 0.7113 0.7113 0.7113
0.4653 0.7120 0.7120 0.7120
0.4663 0.7127 0.7127 0.7127
0.4673 0.7134 0.7134 0.7134
0.4682 0.7140 0.7140 0.7140
0.4692 0.7147 0.7147 0.7147
0.4702 0.7154 0.7154 0.7154
0.4712 0.7160 0.7160 0.7160
0.4721 0.7167 0.7167 0.7167
0.4731 0.7174 0.7174 0.7174
0.4741 0.7180 0.7180 0.7180
0.4751 0.7187 0.7187 0.7187
0.4761 0.7194 0.7194 0.7194
0.4770 0.7200 0.7200 0.7200
0.4780 0.7207 0.7207 0.7207
0.4790 0.7213 0.7213 0.7213
0.4800 0.7220 0.7220 0.7220
0.4809 0.7227 0.7227 0.7227
0.4819 0.7233 0.7233 0.7233
0.4829 0.7240 0.7240 0.7240
0.4839 0.7246 0.7246 0.7246
0.4848 0.7253 0.7253 0.7253
0.4858 0.7259 0.7259 0.7259
0.4868 0.7266 0.7266 0.7266
0.4878 0.7272 0.7272 0.7272
0.4888 0.7279 0.7279 0.7279
0.4897 0.7286 0.7286 0.7286
0.4907 0.7292 0.7292 0.7292
0.4917 0.7299 0.7299 0.7299
0.4927 0.7305 0.7305 0.7305
0.4936 0.7312 0.7312 0.7312
0.4946 0.7318 0.7318 0.7318
0.4956 0.7325 0.7325 0.7325
0.4966 0.7331 0.7331 0.7331
0.4976 0.7337 0.7337 0.7337
0.4985 0.7344 0.7344 0.7344
0.4995 0.7350 0.7350 0.7350
0.5005 0.7357 0.7357 0.7357
0.5015 0.7363 0.7363 0.7363
0.5024 0.7370 0.7370 0.7370
0.5034 0.7376 0.7376 0.7376
0.5044 0.7382 0.7382 0.7382
0.5054 0.7389 0.7389 0.7389
0.5064 0.7395 0.7395 0.7395
0.5073 0.7402 0.7402 0.7402
0.5083 0.7408 0.7408 0.7408
0.5093 0.7414 0.7414 0.7414
0.5103 0.7421 0.7421 0.7421
0.5112 0.7427 0.7427 0.7427
0.5122 0.7433 0.7433 0.7433
0.5132 0.7440 0.7440 0.7440
0.5142 0.7446 0.7446 0.7446
0.5152 0.7452 0.7452 0.7452
0.5161 0.7459 0.7459 0.7459
0.5171 0.7465 0.7465 0.7465
0.5181 0.7471 0.7471 0.7471
0.5191 0.7478 0.7478 0.7478
0.5200 0.7484 0.7484 0.7484
0.5210 0.7490 0.7490 0.7490
0.5220 0.7497 0.7497 0.7497
0.5230 0.7503 0.7503 0.7503
0.5239 0.7509 0.7509 0.7509
0.5249 0.7515 0.7515 0.7515
0.5259 0.7522 0.7522 0.7522
0.5269 0.7528 0.7528 0.7528
0.5279 0.7534 0.7534 0.7534
0.5288 0.7540 0.7540 0.7540
0.5298 0.7547 0.7547 0.7547
0.5308 0.7553 0.7553 0.7553
0.5318 0.7559 0.7559 0.7559
0.5327 0.7565 0.7565 0.7565
0.5337 0.7571 0.7571 0.7571
0.5347 0.7578 0.7578 0.7578
0.5357 0.7584 0.7584 0.7584
0.5367 0.7590 0.7590 0.7590
0.5376 0.7596 0.7596 0.7596
0.5386 0.7602 0.7602 0.7602
0.5396 0.7609 0.7609 0.7609
0.5406 0.7615 0.7615 0.7615
0.5415 0.7621 0.7621 0.7621
0.5425 0.7627 0.7627 0.7627
0.5435 0.7633 0.7633 0.7633
0.5445 0.7639 0.7639 0.7639
0.5455 0.7645 0.7645 0.7645
0.5464 0.7651 0.7651 0.7651
0.5474 0.7658 0.7658 0.7658
0.5484 0.7664 0.7664 0.7664
0.5494 0.7670 0.7670 0.7670
0.5503 0.7676 0.7676 0.7676
0.5513 0.7682 0.7682 0.7682
0.5523 0.7688 0.7688 0.7688
0.5533 0.7694 0.7694 0.7694
0.5543 0.7700 0.7700 0.7700
0.5552 0.7706 0.7706 0.7706
0.5562 0.7712 0.7712 0.7712
0.5572 0.7718 0.7718 0.7718
0.5582 0.7724 0.7724 0.7724
0.5591 0.7730 0.7730 0.7730
0.5601 0.7736 0.7736 0.7736
0.5611 0.7742 0.7742 0.7742
0.5621 0.7748 0.7748 0.7748
0.5630 0.7754 0.7754 0.7754
0.5640 0.7761 0.7761 0.7761
0.5650 0.7767 0.7767 0.7767
0.5660 0.7772 0.7772 0.7772
0.5670 0.7778 0.7778 0.7778
0.5679 0.7784 0.7784 0.7784
0.5689 0.7790 0.7790 0.7790
0.5699 0.7796 0.7796 0.7796
0.5709 0.7802 0.7802 0.7802
0.5718 0.7808 0.7808 0.7808
0.5728 0.7814 0.7814 0.7814
0.5738 0.7820 0.7820 0.7820
0.5748 0.7826 0.7826 0.7826
0.5758 0.7832 0.7832 0.7832
0.5767 0.7838 0.7838 0.7838
0.5777 0.7844 0.7844 0.7844
0.5787 0.7850 0.7850 0.7850
0.5797 0.7856 0.7856 0.7856
0.5806 0.7862 0.7862 0.7862
0.5816 0.7868 0.7868 0.7868
0.5826 0.7873 0.7873 0.7873
0.5836 0.7879 0.7879 0.7879
0.5846 0.7885 0.7885 0.7885
0.5855 0.7891 0.7891 0.7891
0.5865 0.7897 0.7897 0.7897
0.5875 0.7903 0.7903 0.7903
0.5885 0.7909 0.7909 0.7909
0.5894 0.7915 0.7915 0.7915
0.5904 0.7920 0.7920 0.7920
0.5914 0.7926 0.7926 0.7926
0.5924 0.7932 0.7932 0.7932
0.5934 0.7938 0.7938 0.7938
0.5943 0.7944 0.7944 0.7944
0.5953 0.7950 0.7950 0.7950
0.5963 0.7955 0.7955 0.7955
0.5973 0.7961 0.7961 0.7961
0.5982 0.7967 0.7967 0.7967
0.5992 0.7973 0.7973 0.7973
0.6002 0.7979 0.7979 0.7979
0.6012 0.7984 0.7984 0.7984
0.6022 0.7990 0.7990 0.7990
0.6031 0.7996 0.7996 0.7996
0.6041 0.8002 0.8002 0.8002
0.6051 0.8007 0.8007 0.8007
0.6061 0.8013 0.8013 0.8013
0.6070 0.8019 0.8019 0.8019
0.6080 0.8025 0.8025 0.8025
0.6090 0.8030 0.8030 0.8030
0.6100 0.8036 0.8036 0.8036
0.6109 0.8042 0.8042 0.8042
0.6119 0.8048 0.8048 0.8048
0.6129 0.8053 0.8053 0.8053
0.6139 0.8059 0.8059 0.8059
0.6149 0.8065 0.8065 0.8065
0.6158 0.8070 0.8070 0.8070
0.6168 0.8076 0.8076 0.8076
0.6178 0.8082 0.8082 0.8082
0.6188 0.8088 0.8088 0.8088
0.6197 0.8093 0.8093 0.8093
0.6207 0.8099 0.8099 0.8099
0.6217 0.8105 0.8105 0.8105
0.6227 0.8110 0.8110 0.8110
0.6237 0.8116 0.8116 0.8116
0.6246 0.8122 0.8122 0.8122
0.6256 0.8127 0.8127 0.8127
0.6266 0.8133 0.8133 0.8133
0.6276 0.8138 0.8138 0.8138
0.6285 0.8144 0.8144 0.8144
0.6295 0.8150 0.8150 0.8150
0.6305 0.8155 0.8155 0.8155
0.6315 0.8161 0.8161 0.8161
0.6325 0.8167 0.8167 0.8167
0.6334 0.8172 0.8172 0.8172
0.6344 0.8178 0.8178 0.8178
0.6354 0.8183 0.8183 0.8183
0.6364 0.8189 0.8189 0.8189
0.6373 0.8195 0.8195 0.8195
0.6383 0.8200 0.8200 0.8200
0.6393 0.8206 0.8206 0.8206
0.6403 0.8211 0.8211 0.8211
0.6413 0.8217 0.8217 0.8217
0.6422 0.8222 0.8222 0.8222
0.6432 0.8228 0.8228 0.8228
0.6442 0.8234 0.8234 0.8234
0.6452 0.8239 0.8239 0.8239
0.6461 0.8245 0.8245 0.8245
0.6471 0.8250 0.8250 0.8250
0.6481 0.8256 0.8256 0.8256
0.6491 0.8261 0.8261 0.8261
0.6500 0.8267 0.8267 0.8267
0.6510 0.8272 0.8272 0.8272
0.6520 0.8278 0.8278 0.8278
0.6530 0.8283 0.8283 0.8283
0.6540 0.8289 0.8289 0.8289
0.6549 0.8294 0.8294 0.8294
0.6559 0.8300 0.8300 0.8300
0.6569 0.8305 0.8305 0.8305
0.6579 0.8311 0.8311 0.8311
0.6588 0.8316 0.8316 0.8316
0.6598 0.8322 0.8322 0.8322
0.6608 0.8327 0.8327 0.8327
0.6618 0.8333 0.8333 0.8333
0.6628 0.8338 0.8338 0.8338
0.6637 0.8344 0.8344 0.8344
0.6647 0.8349 0.8349 0.8349
0.6657 0.8355 0.8355 0.8355
0.6667 0.8360 0.8360 0.8360
0.6676 0.8366 0.8366 0.8366
0.6686 0.8371 0.8371 0.8371
0.6696 0.8376 0.8376 0.8376
0.6706 0.8382 0.8382 0.8382
0.6716 0.8387 0.8387 0.8387
0.6725 0.8393 0.8393 0.8393
0.6735 0.8398 0.8398 0.8398
0.6745 0.8403 0.8403 0.8403
0.6755 0.8409 0.8409 0.8409
0.6764 0.8414 0.8414 0.8414
0.6774 0.8420 0.8420 0.8420
0.6784 0.8425 0.8425 0.8425
0.6794 0.8430 0.8430 0.8430
0.6804 0.8436 0.8436 0.8436
0.6813 0.8441 0.8441 0.8441
0.6823 0.8447 0.8447 0.8447
0.6833 0.8452 0.8452 0.8452
0.6843 0.8457 0.8457 0.8457
0.6852 0.8463 0.8463 0.8463
0.6862 0.8468 0.8468 0.8468
0.6872 0.8473 0.8473 0.8473
0.6882 0.8479 0.8479 0.8479
0.6891 0.8484 0.8484 0.8484
0.6901 0.8489 0.8489 0.8489
0.6911 0.8495 0.8495 0.8495
0.6921 0.8500 0.8500 0.8500
0.6931 0.8505 0.8505 0.8505
0.6940 0.8511 0.8511 0.8511
0.6950 0.8516 0.8516 0.8516
0.6960 0.8521 0.8521 0.8521
0.6970 0.8527 0.8527 0.8527
0.6979 0.8532 0.8532 0.8532
0.6989 0.8537 0.8537 0.8537
0.6999 0.8543 0.8543 0.8543
0.7009 0.8548 0.8548 0.8548
0.7019 0.8553 0.8553 0.8553
0.7028 0.8558 0.8558 0.8558
0.7038 0.8564 0.8564 0.8564
0.7048 0.8569 0.8569 0.8569
0.7058 0.8574 0.8574 0.8574
0.7067 0.8579 0.8579 0.8579
0.7077 0.8585 0.8585 0.8585
0.7087 0.8590 0.8590 0.8590
0.7097 0.8595 0.8595 0.8595
0.7107 0.8600 0.8600 0.8600
0.7116 0.8606 0.8606 0.8606
0.7126 0.8611 0.8611 0.8611
0.7136 0.8616 0.8616 0.8616
0.7146 0.8621 0.8621 0.8621
0.7155 0.8627 0.8627 0.8627
0.7165 0.8632 0.8632 0.8632
0.7175 0.8637 0.8637 0.8637
0.7185 0.8642 0.8642 0.8642
0.7195 0.8647 0.8647 0.8647
0.7204 0.8653 0.8653 0.8653
0.7214 0.8658 0.8658 0.8658
0.7224 0.8663 0.8663 0.8663
0.7234 0.8668 0.8668 0.8668
0.7243 0.8673 0.8673 0.8673
0.7253 0.8679 0.8679 0.8679
0.7263 0.8684 0.8684 0.8684
0.7273 0.8689 0.8689 0.8689
0.7283 0.8694 0.8694 0.8694
0.7292 0.8699 0.8699 0.8699
0.7302 0.8705 0.8705 0.8705
0.7312 0.8710 0.8710 0.8710
0.7322 0.8715 0.8715 0.8715
0.7331 0.8720 0.8720 0.8720
0.7341 0.8725 0.8725 0.8725
0.7351 0.8730 0.8730 0.8730
0.7361 0.8735 0.8735 0.8735
0.7370 0.8741 0.8741 0.8741
0.7380 0.8746 0.8746 0.8746
0.7390 0.8751 0.8751 0.8751
0.7400 0.8756 0.8756 0.8756
0.7410 0.8761 0.8761 0.8761
0.7419 0.8766 0.8766 0.8766
0.7429 0.8771 0.8771 0.8771
0.7439 0.8776 0.8776 0.8776
0.7449 0.8782 0.8782 0.8782
0.7458 0.8787 0.8787 0.8787
0.7468 0.8792 0.8792 0.8792
0.7478 0.8797 0.8797 0.8797
0.7488 0.8802 0.8802 0.8802
0.7498 0.8807 0.8807 0.8807
0.7507 0.8812 0.8812 0.8812
0.7517 0.8817 0.8817 0.8817
0.7527 0.8822 0.8822 0.8822
0.7537 0.8827 0.8827 0.8827
0.7546 0.8832 0.8832 0.8832
0.7556 0.8837 0.8837 0.8837
0.7566 0.8842 0.8842 0.8842
0.7576 0.8848 0.8848 0.8848
0.7586 0.8853 0.8853 0.8853
0.7595 0.8858 0.8858 0.8858
0.7605 0.8863 0.8863 0.8863
0.7615 0.8868 0.8868 0.8868
0.7625 0.8873 0.8873 0.8873
0.7634 0.8878 0.8878 0.8878
0.7644 0.8883 0.8883 0.8883
0.7654 0.8888 0.8888 0.8888
0.7664 0.8893 0.8893 0.8893
0.7674 0.8898 0.8898 0.8898
0.7683 0.8903 0.8903 0.8903
0.7693 0.8908 0.8908 0.8908
0.7703 0.8913 0.8913 0.8913
0.7713 0.8918 0.8918 0.8918
0.7722 0.8923 0.8923 0.8923
0.7732 0.8928 0.8928 0.8928
0.7742 0.8933 0.8933 0.8933
0.7752 0.8938 0.8938 0.8938
0.7761 0.8943 0.8943 0.8943
0.7771 0.8948 0.8948 0.8948
0.7781 0.8953 0.8953 0.8953
0.7791 0.8958 0.8958 0.8958
0.7801 0.8963 0.8963 0.8963
0.7810 0.8968 0.8968 0.8968
0.7820 0.8973 0.8973 0.8973
0.7830 0.8978 0.8978 0.8978
0.7840 0.8983 0.8983 0.8983
0.7849 0.8988 0.8988 0.8988
0.7859 0.8992 0.8992 0.8992
0.7869 0.8997 0.8997 0.8997
0.7879 0.9002 0.9002 0.9002
0.7889 0.9007 0.9007 0.9007
0.7898 0.9012 0.9012 0.9012
0.7908 0.9017 0.9017 0.9017
0.7918 0.9022 0.9022 0.9022
0.7928 0.9027 0.9027 0.9027
0.7937 0.9032 0.9032 0.9032
0.7947 0.9037 0.9037 0.9037
0.7957 0.9042 0.9042 0.9042
0.7967 0.9047 0.9047 0.9047
0.7977 0.9052 0.9052 0.9052
0.7986 0.9056 0.9056 0.9056
0.7996 0.9061 0.9061 0.9061
0.8006 0.9066 0.9066 0.9066
0.8016 0.9071 0.9071 0.9071
0.8025 0.9076 0.9076 0.9076
0.8035 0.9081 0.9081 0.9081
0.8045 0.9086 0.9086 0.9086
0.8055 0.9091 0.9091 0.9091
0.8065 0.9096 0.9096 0.9096
0.8074 0.9100 0.9100 0.9100
0.8084 0.9105 0.9105 0.9105
0.8094 0.9110 0.9110 0.9110
0.8104 0.9115 0.9115 0.9115
0.8113 0.9120 0.9120 0.9120
0.8123 0.9125 0.9125 0.9125
0.8133 0.9130 0.9130 0.9130
0.8143 0.9134 0.9134 0.9134
0.8152 0.9139 0.9139 0.9139
0.8162 0.9144 0.9144 0.9144
0.8172 0.9149 0.9149 0.9149
0.8182 0.9154 0.9154 0.9154
0.8192 0.9159 0.9159 0.9159
0.8201 0.9163 0.9163 0.9163
0.8211 0.9168 0.9168 0.9168
0.8221 0.9173 0.9173 0.9173
0.8231 0.9178 0.9178 0.9178
0.8240 0.9183 0.9183 0.9183
0.8250 0.9187 0.9187 0.9187
0.8260 0.9192 0.9192 0.9192
0.8270 0.9197 0.9197 0.9197
0.8280 0.9202 0.9202 0.9202
0.8289 0.9207 0.9207 0.9207
0.8299 0.9211 0.9211 0.9211
0.8309 0.9216 0.9216 0.9216
