profiles/cal/cse_400nits_amd.cal
CAL
ORIGINATOR "vcgt"
DEVICE_CLASS "DISPLAY"
COLOR_REP "RGB"
NUMBER_OF_FIELDS 4
BEGIN_DATA_FORMAT
RGB_I RGB_R RGB_G RGB_B
END_DATA_FORMAT
NUMBER_OF_SETS 1024
BEGIN_DATA
0.0000 0.0000 0.0000 0.0000
0.0010 0.0000 0.0000 0.0000
0.0020 0.0000 0.0000 0.0000
0.0029 0.0000 0.0000 0.0000
0.0039 0.0000 0.0000 0.0000
0.0049 0.0000 0.0000 0.0000
0.0059 0.0000 0.0000 0.0000
0.0068 0.0000 0.0000 0.0000
0.0078 0.0000 0.0000 0.0000
0.0088 0.0000 0.0000 0.0000
0.0098 0.0000 0.0000 0.0000
0.0108 0.0000 0.0000 0.0000
0.0117 0.0000 0.0000 0.0000
0.0127 0.0000 0.0000 0.0000
0.0137 0.0000 0.0000 0.0000
0.0147 0.0000 0.0000 0.0000
0.0156 0.0000 0.0000 0.0000
0.0166 0.0000 0.0000 0.0000
0.0176 0.0000 0.0000 0.0000
0.0186 0.0000 0.0000 0.0000
0.0196 0.0000 0.0000 0.0000
0.0205 0.0000 0.0000 0.0000
0.0215 0.0000 0.0000 0.0000
0.0225 0.0000 0.0000 0.0000
0.0235 0.0000 0.0000 0.0000
0.0244 0.0000 0.0000 0.0000
0.0254 0.0000 0.0000 0.0000
0.0264 0.0000 0.0000 0.0000
0.0274 0.0000 0.0000 0.0000
0.0283 0.0000 0.0000 0.0000
0.0293 0.0000 0.0000 0.0000
0.0303 0.0000 0.0000 0.0000
0.0313 0.0000 0.0000 0.0000
0.0323 0.0000 0.0000 0.0000
0.0332 0.0000 0.0000 0.0000
0.0342 0.0000 0.0000 0.0000
0.0352 0.0000 0.0000 0.0000
0.0362 0.0000 0.0000 0.0000
0.0371 0.0000 0.0000 0.0000
0.0381 0.0000 0.0000 0.0000
0.0391 0.0000 0.0000 0.0000
0.0401 0.0000 0.0000 0.0000
0.0411 0.0000 0.0000 0.0000
0.0420 0.0000 0.0000 0.0000
0.0430 0.0000 0.0000 0.0000
0.0440 0.0000 0.0000 0.0000
0.0450 0.0000 0.0000 0.0000
0.0459 0.0000 0.0000 0.0000
0.0469 0.0000 0.0000 0.0000
0.0479 0.0000 0.0000 0.0000
0.0489 0.0000 0.0000 0.0000
0.0499 0.0000 0.0000 0.0000
0.0508 0.0000 0.0000 0.0000
0.0518 0.0000 0.0000 0.0000
0.0528 0.0000 0.0000 0.0000
0.0538 0.0000 0.0000 0.0000
0.0547 0.0000 0.0000 0.0000
0.0557 0.0000 0.0000 0.0000
0.0567 0.0000 0.0000 0.0000
0.0577 0.0000 0.0000 0.0000
0.0587 0.0000 0.0000 0.0000
0.0596 0.0000 0.0000 0.0000
0.0606 0.0000 0.0000 0.0000
0.0616 0.0000 0.0000 0.0000
0.0626 0.0000 0.0000 0.0000
0.0635 0.0000 0.0000 0.0000
0.0645 0.0000 0.0000 0.0000
0.0655 0.0000 0.0000 0.0000
0.0665 0.0000 0.0000 0.0000
0.0674 0.0000 0.0000 0.0000
0.0684 0.0000 0.0000 0.0000
0.0694 0.0000 0.0000 0.0000
0.0704 0.0000 0.0000 0.0000
0.0714 0.0038 0.0038 0.0038
0.0723 0.0087 0.0087 0.0087
0.0733 0.0135 0.0135 0.0135
0.0743 0.0184 0.0184 0.0184
0.0753 0.0222 0.0222 0.0222
0.0762 0.0256 0.0256 0.0256
0.0772 0.0291 0.0291 0.0291
0.0782 0.0326 0.0326 0.0326
0.0792 0.0353 0.0353 0.0353
0.0802 0.0376 0.0376 0.0376
0.0811 0.0400 0.0400 0.0400
0.0821 0.0424 0.0424 0.0424
0.0831 0.0445 0.0445 0.0445
0.0841 0.0465 0.0465 0.0465
0.0850 0.0484 0.0484 0.0484
0.0860 0.0504 0.0504 0.0504
0.0870 0.0522 0.0522 0.0522
0.0880 0.0540 0.0540 0.0540
0.0890 0.0557 0.0557 0.0557
0.0899 0.0574 0.0574 0.0574
0.0909 0.0591 0.0591 0.0591
0.0919 0.0607 0.0607 0.0607
0.0929 0.0623 0.0623 0.0623
0.0938 0.0639 0.0639 0.0639
0.0948 0.0654 0.0654 0.0654
0.0958 0.0669 0.0669 0.0669
0.0968 0.0684 0.0684 0.0684
0.0978 0.0699 0.0699 0.0699
0.0987 0.0713 0.0713 0.0713
0.0997 0.0728 0.0728 0.0728
0.1007 0.0742 0.0742 0.0742
0.1017 0.0756 0.0756 0.0756
0.1026 0.0770 0.0770 0.0770
0.1036 0.0784 0.0784 0.0784
0.1046 0.0797 0.0797 0.0797
0.1056 0.0811 0.0811 0.0811
0.1065 0.0824 0.0824 0.0824
0.1075 0.0837 0.0837 0.0837
0.1085 0.0850 0.0850 0.0850
0.1095 0.0864 0.0864 0.0864
0.1105 0.0877 0.0877 0.0877
0.1114 0.0889 0.0889 0.0889
0.1124 0.0902 0.0902 0.0902
0.1134 0.0915 0.0915 0.0915
0.1144 0.0927 0.0927 0.0927
0.1153 0.0940 0.0940 0.0940
0.1163 0.0952 0.0952 0.0952
0.1173 0.0965 0.0965 0.0965
0.1183 0.0977 0.0977 0.0977
0.1193 0.0989 0.0989 0.0989
0.1202 0.1002 0.1002 0.1002
0.1212 0.1014 0.1014 0.1014
0.1222 0.1026 0.1026 0.1026
0.1232 0.1038 0.1038 0.1038
0.1241 0.1050 0.1050 0.1050
0.1251 0.1062 0.1062 0.1062
0.1261 0.1074 0.1074 0.1074
0.1271 0.1085 0.1085 0.1085
0.1281 0.1097 0.1097 0.1097
0.1290 0.1109 0.1109 0.1109
0.1300 0.1121 0.1121 0.1121
0.1310 0.1132 0.1132 0.1132
0.1320 0.1144 0.1144 0.1144
0.1329 0.1156 0.1156 0.1156
0.1339 0.1167 0.1167 0.1167
0.1349 0.1179 0.1179 0.1179
0.1359 0.1190 0.1190 0.1190
0.1369 0.1202 0.1202 0.1202
0.1378 0.1213 0.1213 0.1213
0.1388 0.1224 0.1224 0.1224
0.1398 0.1236 0.1236 0.1236
0.1408 0.1247 0.1247 0.1247
0.1417 0.1258 0.1258 0.1258
0.1427 0.1270 0.1270 0.1270
0.1437 0.1281 0.1281 0.1281
0.1447 0.1292 0.1292 0.1292
0.1457 0.1303 0.1303 0.1303
0.1466 0.1314 0.1314 0.1314
0.1476 0.1326 0.1326 0.1326
0.1486 0.1337 0.1337 0.1337
0.1496 0.1348 0.1348 0.1348
0.1505 0.1359 0.1359 0.1359
0.1515 0.1370 0.1370 0.1370
0.1525 0.1381 0.1381 0.1381
0.1535 0.1392 0.1392 0.1392
0.1544 0.1403 0.1403 0.1403
0.1554 0.1414 0.1414 0.1414
0.1564 0.1425 0.1425 0.1425
0.1574 0.1436 0.1436 0.1436
0.1584 0.1447 0.1447 0.1447
0.1593 0.1457 0.1457 0.1457
0.1603 0.1468 0.1468 0.1468
0.1613 0.1479 0.1479 0.1479
0.1623 0.1490 0.1490 0.1490
0.1632 0.1501 0.1501 0.1501
0.1642 0.1512 0.1512 0.1512
0.1652 0.1522 0.1522 0.1522
0.1662 0.1533 0.1533 0.1533
0.1672 0.1544 0.1544 0.1544
0.1681 0.1555 0.1555 0.1555
0.1691 0.1565 0.1565 0.1565
0.1701 0.1576 0.1576 0.1576
0.1711 0.1587 0.1587 0.1587
0.1720 0.1598 0.1598 0.1598
0.1730 0.1608 0.1608 0.1608
0.1740 0.1619 0.1619 0.1619
0.1750 0.1630 0.1630 0.1630
0.1760 0.1640 0.1640 0.1640
0.1769 0.1651 0.1651 0.1651
0.1779 0.1661 0.1661 0.1661
0.1789 0.1672 0.1672 0.1672
0.1799 0.1683 0.1683 0.1683
0.1808 0.1693 0.1693 0.1693
0.1818 0.1704 0.1704 0.1704
0.1828 0.1714 0.1714 0.1714
0.1838 0.1725 0.1725 0.1725
0.1848 0.1735 0.1735 0.1735
0.1857 0.1746 0.1746 0.1746
0.1867 0.1757 0.1757 0.1757
0.1877 0.1767 0.1767 0.1767
0.1887 0.1778 0.1778 0.1778
0.1896 0.1788 0.1788 0.1788
0.1906 0.1799 0.1799 0.1799
0.1916 0.1809 0.1809 0.1809
0.1926 0.1819 0.1819 0.1819
0.1935 0.1830 0.1830 0.1830
0.1945 0.1840 0.1840 0.1840
0.1955 0.1851 0.1851 0.1851
0.1965 0.1861 0.1861 0.1861
0.1975 0.1872 0.1872 0.1872
0.1984 0.1882 0.1882 0.1882
0.1994 0.1893 0.1893 0.1893
0.2004 0.1903 0.1903 0.1903
0.2014 0.1913 0.1913 0.1913
0.2023 0.1924 0.1924 0.1924
0.2033 0.1934 0.1934 0.1934
0.2043 0.1944 0.1944 0.1944
0.2053 0.1955 0.1955 0.1955
0.2063 0.1965 0.1965 0.1965
0.2072 0.1976 0.1976 0.1976
0.2082 0.1986 0.1986 0.1986
0.2092 0.1996 0.1996 0.1996
0.2102 0.2007 0.2007 0.2007
0.2111 0.2017 0.2017 0.2017
0.2121 0.2027 0.2027 0.2027
0.2131 0.2038 0.2038 0.2038
0.2141 0.2048 0.2048 0.2048
0.2151 0.2058 0.2058 0.2058
0.2160 0.2068 0.2068 0.2068
0.2170 0.2079 0.2079 0.2079
0.2180 0.2089 0.2089 0.2089
0.2190 0.2099 0.2099 0.2099
0.2199 0.2110 0.2110 0.2110
0.2209 0.2120 0.2120 0.2120
0.2219 0.2130 0.2130 0.2130
0.2229 0.2140 0.2140 0.2140
0.2239 0.2151 0.2151 0.2151
0.2248 0.2161 0.2161 0.2161
0.2258 0.2171 0.2171 0.2171
0.2268 0.2181 0.2181 0.2181
0.2278 0.2192 0.2192 0.2192
0.2287 0.2202 0.2202 0.2202
0.2297 0.2212 0.2212 0.2212
0.2307 0.2222 0.2222 0.2222
0.2317 0.2233 0.2233 0.2233
0.2326 0.2243 0.2243 0.2243
0.2336 0.2253 0.2253 0.2253
0.2346 0.2263 0.2263 0.2263
0.2356 0.2273 0.2273 0.2273
0.2366 0.2284 0.2284 0.2284
0.2375 0.2294 0.2294 0.2294
0.2385 0.2304 0.2304 0.2304
0.2395 0.2314 0.2314 0.2314
0.2405 0.2324 0.2324 0.2324
0.2414 0.2335 0.2335 0.2335
0.2424 0.2345 0.2345 0.2345
0.2434 0.2355 0.2355 0.2355
0.2444 0.2365 0.2365 0.2365
0.2454 0.2375 0.2375 0.2375
0.2463 0.2385 0.2385 0.2385
0.2473 0.2396 0.2396 0.2396
0.2483 0.2406 0.2406 0.2406
0.2493 0.2416 0.2416 0.2416
0.2502 0.2426 0.2426 0.2426
0.2512 0.2436 0.2436 0.2436
0.2522 0.2446 0.2446 0.2446
0.2532 0.2456 0.2456 0.2456
0.2542 0.2467 0.2467 0.2467
0.2551 0.2477 0.2477 0.2477
0.2561 0.2487 0.2487 0.2487
0.2571 0.2497 0.2497 0.2497
0.2581 0.2507 0.2507 0.2507
0.2590 0.2517 0.2517 0.2517
0.2600 0.2527 0.2527 0.2527
0.2610 0.2537 0.2537 0.2537
0.2620 0.2548 0.2548 0.2548
0.2630 0.2558 0.2558 0.2558
0.2639 0.2568 0.2568 0.2568
0.2649 0.2578 0.2578 0.2578
0.2659 0.2588 0.2588 0.2588
0.2669 0.2598 0.2598 0.2598
0.2678 0.2608 0.2608 0.2608
0.2688 0.2618 0.2618 0.2618
0.2698 0.2628 0.2628 0.2628
0.2708 0.2638 0.2638 0.2638
0.2717 0.2648 0.2648 0.2648
0.2727 0.2659 0.2659 0.2659
0.2737 0.2669 0.2669 0.2669
0.2747 0.2679 0.2679 0.2679
0.2757 0.2689 0.2689 0.2689
0.2766 0.2699 0.2699 0.2699
0.2776 0.2709 0.2709 0.2709
0.2786 0.2719 0.2719 0.2719
0.2796 0.2729 0.2729 0.2729
0.2805 0.2739 0.2739 0.2739
0.2815 0.2749 0.2749 0.2749
0.2825 0.2759 0.2759 0.2759
0.2835 0.2769 0.2769 0.2769
0.2845 0.2779 0.2779 0.2779
0.2854 0.2789 0.2789 0.2789
0.2864 0.2799 0.2799 0.2799
0.2874 0.2809 0.2809 0.2809
0.2884 0.2820 0.2820 0.2820
0.2893 0.2830 0.2830 0.2830
0.2903 0.2840 0.2840 0.2840
0.2913 0.2850 0.2850 0.2850
0.2923 0.2860 0.2860 0.2860
0.2933 0.2870 0.2870 0.2870
0.2942 0.2880 0.2880 0.2880
0.2952 0.2890 0.2890 0.2890
0.2962 0.2900 0.2900 0.2900
0.2972 0.2910 0.2910 0.2910
0.2981 0.2920 0.2920 0.2920
0.2991 0.2930 0.2930 0.2930
0.3001 0.2940 0.2940 0.2940
0.3011 0.2950 0.2950 0.2950
0.3021 0.2960 0.2960 0.2960
0.3030 0.2970 0.2970 0.2970
0.3040 0.2980 0.2980 0.2980
0.3050 0.2990 0.2990 0.2990
0.3060 0.3000 0.3000 0.3000
0.3069 0.3010 0.3010 0.3010
0.3079 0.3020 0.3020 0.3020
0.3089 0.3030 0.3030 0.3030
0.3099 0.3040 0.3040 0.3040
0.3109 0.3050 0.3050 0.3050
0.3118 0.3060 0.3060 0.3060
0.3128 0.3070 0.3070 0.3070
0.3138 0.3080 0.3080 0.3080
0.3148 0.3090 0.3090 0.3090
0.3157 0.3100 0.3100 0.3100
0.3167 0.3110 0.3110 0.3110
0.3177 0.3120 0.3120 0.3120
0.3187 0.3130 0.3130 0.3130
0.3196 0.3140 0.3140 0.3140
0.3206 0.3150 0.3150 0.3150
0.3216 0.3160 0.3160 0.3160
0.3226 0.3170 0.3170 0.3170
0.3236 0.3180 0.3180 0.3180
0.3245 0.3190 0.3190 0.3190
0.3255 0.3200 0.3200 0.3200
0.3265 0.3210 0.3210 0.3210
0.3275 0.3220 0.3220 0.3220
0.3284 0.3230 0.3230 0.3230
0.3294 0.3240 0.3240 0.3240
0.3304 0.3250 0.3250 0.3250
0.3314 0.3260 0.3260 0.3260
0.3324 0.3270 0.3270 0.3270
0.3333 0.3280 0.3280 0.3280
0.3343 0.3290 0.3290 0.3290
0.3353 0.3300 0.3300 0.3300
0.3363 0.3310 0.3310 0.3310
0.3372 0.3319 0.3319 0.3319
0.3382 0.3329 0.3329 0.3329
0.3392 0.3339 0.3339 0.3339
0.3402 0.3349 0.3349 0.3349
0.3412 0.3359 0.3359 0.3359
0.3421 0.3369 0.3369 0.3369
0.3431 0.3379 0.3379 0.3379
0.3441 0.3389 0.3389 0.3389
0.3451 0.3399 0.3399 0.3399
0.3460 0.3409 0.3409 0.3409
0.3470 0.3419 0.3419 0.3419
0.3480 0.3429 0.3429 0.3429
0.3490 0.3439 0.3439 0.3439
0.3500 0.3449 0.3449 0.3449
0.3509 0.3459 0.3459 0.3459
0.3519 0.3469 0.3469 0.3469
0.3529 0.3479 0.3479 0.3479
0.3539 0.3489 0.3489 0.3489
0.3548 0.3499 0.3499 0.3499
0.3558 0.3509 0.3509 0.3509
0.3568 0.3519 0.3519 0.3519
0.3578 0.3528 0.3528 0.3528
0.3587 0.3538 0.3538 0.3538
0.3597 0.3548 0.3548 0.3548
0.3607 0.3558 0.3558 0.3558
0.3617 0.3568 0.3568 0.3568
0.3627 0.3578 0.3578 0.3578
0.3636 0.3588 0.3588 0.3588
0.3646 0.3598 0.3598 0.3598
0.3656 0.3608 0.3608 0.3608
0.3666 0.3618 0.3618 0.3618
0.3675 0.3628 0.3628 0.3628
0.3685 0.3638 0.3638 0.3638
0.3695 0.3648 0.3648 0.3648
0.3705 0.3658 0.3658 0.3658
0.3715 0.3668 0.3668 0.3668
0.3724 0.3677 0.3677 0.3677
0.3734 0.3687 0.3687 0.3687
0.3744 0.3697 0.3697 0.3697
0.3754 0.3707 0.3707 0.3707
0.3763 0.3717 0.3717 0.3717
0.3773 0.3727 0.3727 0.3727
0.3783 0.3737 0.3737 0.3737
0.3793 0.3747 0.3747 0.3747
0.3803 0.3757 0.3757 0.3757
0.3812 0.3767 0.3767 0.3767
0.3822 0.3777 0.3777 0.3777
0.3832 0.3787 0.3787 0.3787
0.3842 0.3796 0.3796 0.3796
0.3851 0.3806 0.3806 0.3806
0.3861 0.3816 0.3816 0.3816
0.3871 0.3826 0.3826 0.3826
0.3881 0.3836 0.3836 0.3836
0.3891 0.3846 0.3846 0.3846
0.3900 0.3856 0.3856 0.3856
0.3910 0.3866 0.3866 0.3866
0.3920 0.3876 0.3876 0.3876
0.3930 0.3886 0.3886 0.3886
0.3939 0.3896 0.3896 0.3896
0.3949 0.3905 0.3905 0.3905
0.3959 0.3915 0.3915 0.3915
0.3969 0.3925 0.3925 0.3925
0.3978 0.3935 0.3935 0.3935
0.3988 0.3945 0.3945 0.3945
0.3998 0.3955 0.3955 0.3955
0.4008 0.3965 0.3965 0.3965
0.4018 0.3975 0.3975 0.3975
0.4027 0.3985 0.3985 0.3985
0.4037 0.3995 0.3995 0.3995
0.4047 0.4005 0.4005 0.4005
0.4057 0.4014 0.4014 0.4014
0.4066 0.4024 0.4024 0.4024
0.4076 0.4034 0.4034 0.4034
0.4086 0.4044 0.4044 0.4044
0.4096 0.4054 0.4054 0.4054
0.4106 0.4064 0.4064 0.4064
0.4115 0.4074 0.4074 0.4074
0.4125 0.4084 0.4084 0.4084
0.4135 0.4094 0.4094 0.4094
0.4145 0.4103 0.4103 0.4103
0.4154 0.4113 0.4113 0.4113
0.4164 0.4123 0.4123 0.4123
0.4174 0.4133 0.4133 0.4133
0.4184 0.4143 0.4143 0.4143
0.4194 0.4153 0.4153 0.4153
0.4203 0.4163 0.4163 0.4163
0.4213 0.4173 0.4173 0.4173
0.4223 0.4183 0.4183 0.4183
0.4233 0.4192 0.4192 0.4192
0.4242 0.4202 0.4202 0.4202
0.4252 0.4212 0.4212 0.4212
0.4262 0.4222 0.4222 0.4222
0.4272 0.4232 0.4232 0.4232
0.4282 0.4242 0.4242 0.4242
0.4291 0.4252 0.4252 0.4252
0.4301 0.4262 0.4262 0.4262
0.4311 0.4272 0.4272 0.4272
0.4321 0.4281 0.4281 0.4281
0.4330 0.4291 0.4291 0.4291
0.4340 0.4301 0.4301 0.4301
0.4350 0.4311 0.4311 0.4311
0.4360 0.4321 0.4321 0.4321
0.4370 0.4331 0.4331 0.4331
0.4379 0.4341 0.4341 0.4341
0.4389 0.4351 0.4351 0.4351
0.4399 0.4360 0.4360 0.4360
0.4409 0.4370 0.4370 0.4370
0.4418 0.4380 0.4380 0.4380
0.4428 0.4390 0.4390 0.4390
0.4438 0.4400 0.4400 0.4400
0.4448 0.4410 0.4410 0.4410
0.4457 0.4420 0.4420 0.4420
0.4467 0.4430 0.4430 0.4430
0.4477 0.4440 0.4440 0.4440
0.4487 0.4449 0.4449 0.4449
0.4497 0.4459 0.4459 0.4459
0.4506 0.4469 0.4469 0.4469
0.4516 0.4479 0.4479 0.4479
0.4526 0.4489 0.4489 0.4489
0.4536 0.4499 0.4499 0.4499
0.4545 0.4509 0.4509 0.4509
0.4555 0.4518 0.4518 0.4518
0.4565 0.4528 0.4528 0.4528
0.4575 0.4538 0.4538 0.4538
0.4585 0.4548 0.4548 0.4548
0.4594 0.4558 0.4558 0.4558
0.4604 0.4568 0.4568 0.4568
0.4614 0.4578 0.4578 0.4578
0.4624 0.4588 0.4588 0.4588
0.4633 0.4597 0.4597 0.4597
0.4643 0.4607 0.4607 0.4607
0.4653 0.4617 0.4617 0.4617
0.4663 0.4627 0.4627 0.4627
0.4673 0.4637 0.4637 0.4637
0.4682 0.4647 0.4647 0.4647
0.4692 0.4657 0.4657 0.4657
0.4702 0.4667 0.4667 0.4667
0.4712 0.4676 0.4676 0.4676
0.4721 0.4686 0.4686 0.4686
0.4731 0.4696 0.4696 0.4696
0.4741 0.4706 0.4706 0.4706
0.4751 0.4716 0.4716 0.4716
0.4761 0.4726 0.4726 0.4726
0.4770 0.4736 0.4736 0.4736
0.4780 0.4745 0.4745 0.4745
0.4790 0.4755 0.4755 0.4755
0.4800 0.4765 0.4765 0.4765
0.4809 0.4775 0.4775 0.4775
0.4819 0.4785 0.4785 0.4785
0.4829 0.4795 0.4795 0.4795
0.4839 0.4805 0.4805 0.4805
0.4848 0.4814 0.4814 0.4814
0.4858 0.4824 0.4824 0.4824
0.4868 0.4834 0.4834 0.4834
0.4878 0.4844 0.4844 0.4844
0.4888 0.4854 0.4854 0.4854
0.4897 0.4864 0.4864 0.4864
0.4907 0.4874 0.4874 0.4874
0.4917 0.4883 0.4883 0.4883
0.4927 0.4893 0.4893 0.4893
0.4936 0.4903 0.4903 0.4903
0.4946 0.4913 0.4913 0.4913
0.4956 0.4923 0.4923 0.4923
0.4966 0.4933 0.4933 0.4933
0.4976 0.4943 0.4943 0.4943
0.4985 0.4952 0.4952 0.4952
0.4995 0.4962 0.4962 0.4962
0.5005 0.4972 0.4972 0.4972
0.5015 0.4982 0.4982 0.4982
0.5024 0.4992 0.4992 0.4992
0.5034 0.5002 0.5002 0.5002
0.5044 0.5012 0.5012 0.5012
0.5054 0.5021 0.5021 0.5021
0.5064 0.5031 0.5031 0.5031
0.5073 0.5041 0.5041 0.5041
0.5083 0.5051 0.5051 0.5051
0.5093 0.5061 0.5061 0.5061
0.5103 0.5071 0.5071 0.5071
0.5112 0.5080 0.5080 0.5080
0.5122 0.5090 0.5090 0.5090
0.5132 0.5100 0.5100 0.5100
0.5142 0.5110 0.5110 0.5110
0.5152 0.5120 0.5120 0.5120
0.5161 0.5130 0.5130 0.5130
0.5171 0.5140 0.5140 0.5140
0.5181 0.5149 0.5149 0.5149
0.5191 0.5159 0.5159 0.5159
0.5200 0.5169 0.5169 0.5169
0.5210 0.5179 0.5179 0.5179
0.5220 0.5189 0.5189 0.5189
0.5230 0.5199 0.5199 0.5199
0.5239 0.5208 0.5208 0.5208
0.5249 0.5218 0.5218 0.5218
0.5259 0.5228 0.5228 0.5228
0.5269 0.5238 0.5238 0.5238
0.5279 0.5248 0.5248 0.5248
0.5288 0.5258 0.5258 0.5258
0.5298 0.5268 0.5268 0.5268
0.5308 0.5277 0.5277 0.5277
0.5318 0.5287 0.5287 0.5287
0.5327 0.5297 0.5297 0.5297
0.5337 0.5307 0.5307 0.5307
0.5347 0.5317 0.5317 0.5317
0.5357 0.5327 0.5327 0.5327
0.5367 0.5336 0.5336 0.5336
0.5376 0.5346 0.5346 0.5346
0.5386 0.5356 0.5356 0.5356
0.5396 0.5366 0.5366 0.5366
0.5406 0.5376 0.5376 0.5376
0.5415 0.5386 0.5386 0.5386
0.5425 0.5395 0.5395 0.5395
0.5435 0.5405 0.5405 0.5405
0.5445 0.5415 0.5415 0.5415
0.5455 0.5425 0.5425 0.5425
0.5464 0.5435 0.5435 0.5435
0.5474 0.5445 0.5445 0.5445
0.5484 0.5455 0.5455 0.5455
0.5494 0.5464 0.5464 0.5464
0.5503 0.5474 0.5474 0.5474
0.5513 0.5484 0.5484 0.5484
0.5523 0.5494 0.5494 0.5494
0.5533 0.5504 0.5504 0.5504
0.5543 0.5514 0.5514 0.5514
0.5552 0.5523 0.5523 0.5523
0.5562 0.5533 0.5533 0.5533
0.5572 0.5543 0.5543 0.5543
0.5582 0.5553 0.5553 0.5553
0.5591 0.5563 0.5563 0.5563
0.5601 0.5573 0.5573 0.5573
0.5611 0.5582 0.5582 0.5582
0.5621 0.5592 0.5592 0.5592
0.5630 0.5602 0.5602 0.5602
0.5640 0.5612 0.5612 0.5612
0.5650 0.5622 0.5622 0.5622
0.5660 0.5632 0.5632 0.5632
0.5670 0.5641 0.5641 0.5641
0.5679 0.5651 0.5651 0.5651
0.5689 0.5661 0.5661 0.5661
0.5699 0.5671 0.5671 0.5671
0.5709 0.5681 0.5681 0.5681
0.5718 0.5691 0.5691 0.5691
0.5728 0.5700 0.5700 0.5700
0.5738 0.5710 0.5710 0.5710
0.5748 0.5720 0.5720 0.5720
0.5758 0.5730 0.5730 0.5730
0.5767 0.5740 0.5740 0.5740
0.5777 0.5750 0.5750 0.5750
0.5787 0.5759 0.5759 0.5759
0.5797 0.5769 0.5769 0.5769
0.5806 0.5779 0.5779 0.5779
0.5816 0.5789 0.5789 0.5789
0.5826 0.5799 0.5799 0.5799
0.5836 0.5809 0.5809 0.5809
0.5846 0.5818 0.5818 0.5818
0.5855 0.5828 0.5828 0.5828
0.5865 0.5838 0.5838 0.5838
0.5875 0.5848 0.5848 0.5848
0.5885 0.5858 0.5858 0.5858
0.5894 0.5868 0.5868 0.5868
0.5904 0.5877 0.5877 0.5877
0.5914 0.5887 0.5887 0.5887
0.5924 0.5897 0.5897 0.5897
0.5934 0.5907 0.5907 0.5907
0.5943 0.5917 0.5917 0.5917
0.5953 0.5926 0.5926 0.5926
0.5963 0.5936 0.5936 0.5936
0.5973 0.5946 0.5946 0.5946
0.5982 0.5956 0.5956 0.5956
0.5992 0.5966 0.5966 0.5966
0.6002 0.5976 0.5976 0.5976
0.6012 0.5985 0.5985 0.5985
0.6022 0.5995 0.5995 0.5995
0.6031 0.6005 0.6005 0.6005
0.6041 0.6015 0.6015 0.6015
0.6051 0.6025 0.6025 0.6025
0.6061 0.6035 0.6035 0.6035
0.6070 0.6044 0.6044 0.6044
0.6080 0.6054 0.6054 0.6054
0.6090 0.6064 0.6064 0.6064
0.6100 0.6074 0.6074 0.6074
0.6109 0.6084 0.6084 0.6084
0.6119 0.6094 0.6094 0.6094
0.6129 0.6103 0.6103 0.6103
0.6139 0.6113 0.6113 0.6113
0.6149 0.6123 0.6123 0.6123
0.6158 0.6133 0.6133 0.6133
0.6168 0.6143 0.6143 0.6143
0.6178 0.6152 0.6152 0.6152
0.6188 0.6162 0.6162 0.6162
0.6197 0.6172 0.6172 0.6172
0.6207 0.6182 0.6182 0.6182
0.6217 0.6192 0.6192 0.6192
0.6227 0.6202 0.6202 0.6202
0.6237 0.6211 0.6211 0.6211
0.6246 0.6221 0.6221 0.6221
0.6256 0.6231 0.6231 0.6231
0.6266 0.6241 0.6241 0.6241
0.6276 0.6251 0.6251 0.6251
0.6285 0.6261 0.6261 0.6261
0.6295 0.6270 0.6270 0.6270
0.6305 0.6280 0.6280 0.6280
0.6315 0.6290 0.6290 0.6290
0.6325 0.6300 0.6300 0.6300
0.6334 0.6310 0.6310 0.6310
0.6344 0.6319 0.6319 0.6319
0.6354 0.6329 0.6329 0.6329
0.6364 0.6339 0.6339 0.6339
0.6373 0.6349 0.6349 0.6349
0.6383 0.6359 0.6359 0.6359
0.6393 0.6369 0.6369 0.6369
0.6403 0.6378 0.6378 0.6378
0.6413 0.6388 0.6388 0.6388
0.6422 0.6398 0.6398 0.6398
0.6432 0.6408 0.6408 0.6408
0.6442 0.6418 0.6418 0.6418
0.6452 0.6427 0.6427 0.6427
0.6461 0.6437 0.6437 0.6437
0.6471 0.6447 0.6447 0.6447
0.6481 0.6457 0.6457 0.6457
0.6491 0.6467 0.6467 0.6467
0.6500 0.6477 0.6477 0.6477
0.6510 0.6486 0.6486 0.6486
0.6520 0.6496 0.6496 0.6496
0.6530 0.6506 0.6506 0.6506
0.6540 0.6516 0.6516 0.6516
0.6549 0.6526 0.6526 0.6526
0.6559 0.6535 0.6535 0.6535
0.6569 0.6545 0.6545 0.6545
0.6579 0.6555 0.6555 0.6555
0.6588 0.6565 0.6565 0.6565
0.6598 0.6575 0.6575 0.6575
0.6608 0.6585 0.6585 0.6585
0.6618 0.6594 0.6594 0.6594
0.6628 0.6604 0.6604 0.6604
0.6637 0.6614 0.6614 0.6614
0.6647 0.6624 0.6624 0.6624
0.6657 0.6634 0.6634 0.6634
0.6667 0.6643 0.6643 0.6643
0.6676 0.6653 0.6653 0.6653
0.6686 0.6663 0.6663 0.6663
0.6696 0.6673 0.6673 0.6673
0.6706 0.6683 0.6683 0.6683
0.6716 0.6693 0.6693 0.6693
0.6725 0.6702 0.6702 0.6702
0.6735 0.6712 0.6712 0.6712
0.6745 0.6722 0.6722 0.6722
0.6755 0.6732 0.6732 0.6732
0.6764 0.6742 0.6742 0.6742
0.6774 0.6751 0.6751 0.6751
0.6784 0.6761 0.6761 0.6761
0.6794 0.6771 0.6771 0.6771
0.6804 0.6781 0.6781 0.6781
0.6813 0.6791 0.6791 0.6791
0.6823 0.6801 0.6801 0.6801
0.6833 0.6810 0.6810 0.6810
0.6843 0.6820 0.6820 0.6820
0.6852 0.6830 0.6830 0.6830
0.6862 0.6840 0.6840 0.6840
0.6872 0.6850 0.6850 0.6850
0.6882 0.6859 0.6859 0.6859
0.6891 0.6869 0.6869 0.6869
0.6901 0.6879 0.6879 0.6879
0.6911 0.6889 0.6889 0.6889
0.6921 0.6899 0.6899 0.6899
0.6931 0.6908 0.6908 0.6908
0.6940 0.6918 0.6918 0.6918
0.6950 0.6928 0.6928 0.6928
0.6960 0.6938 0.6938 0.6938
0.6970 0.6948 0.6948 0.6948
0.6979 0.6958 0.6958 0.6958
0.6989 0.6967 0.6967 0.6967
0.6999 0.6977 0.6977 0.6977
0.7009 0.6987 0.6987 0.6987
0.7019 0.6997 0.6997 0.6997
0.7028 0.7007 0.7007 0.7007
0.7038 0.7016 0.7016 0.7016
0.7048 0.7026 0.7026 0.7026
0.7058 0.7036 0.7036 0.7036
0.7067 0.7046 0.7046 0.7046
0.7077 0.7056 0.7056 0.7056
0.7087 0.7065 0.7065 0.7065
0.7097 0.7075 0.7075 0.7075
0.7107 0.7085 0.7085 0.7085
0.7116 0.7095 0.7095 0.7095
0.7126 0.7105 0.7105 0.7105
0.7136 0.7115 0.7115 0.7115
0.7146 0.7124 0.7124 0.7124
0.7155 0.7134 0.7134 0.7134
0.7165 0.7144 0.7144 0.7144
0.7175 0.7154 0.7154 0.7154
0.7185 0.7164 0.7164 0.7164
0.7195 0.7173 0.7173 0.7173
0.7204 0.7183 0.7183 0.7183
0.7214 0.7193 0.7193 0.7193
0.7224 0.7203 0.7203 0.7203
0.7234 0.7213 0.7213 0.7213
0.7243 0.7222 0.7222 0.7222
0.7253 0.7232 0.7232 0.7232
0.7263 0.7242 0.7242 0.7242
0.7273 0.7252 0.7252 0.7252
0.7283 0.7262 0.7262 0.7262
0.7292 0.7271 0.7271 0.7271
0.7302 0.7281 0.7281 0.7281
0.7312 0.7291 0.7291 0.7291
0.7322 0.7301 0.7301 0.7301
0.7331 0.7311 0.7311 0.7311
0.7341 0.7320 0.7320 0.7320
0.7351 0.7330 0.7330 0.7330
0.7361 0.7340 0.7340 0.7340
0.7370 0.7350 0.7350 0.7350
0.7380 0.7360 0.7360 0.7360
0.7390 0.7370 0.7370 0.7370
0.7400 0.7379 0.7379 0.7379
0.7410 0.7389 0.7389 0.7389
0.7419 0.7399 0.7399 0.7399
0.7429 0.7409 0.7409 0.7409
0.7439 0.7419 0.7419 0.7419
0.7449 0.7428 0.7428 0.7428
0.7458 0.7438 0.7438 0.7438
0.7468 0.7448 0.7448 0.7448
0.7478 0.7458 0.7458 0.7458
0.7488 0.7468 0.7468 0.7468
0.7498 0.7477 0.7477 0.7477
0.7507 0.7487 0.7487 0.7487
0.7517 0.7497 0.7497 0.7497
0.7527 0.7507 0.7507 0.7507
0.7537 0.7517 0.7517 0.7517
0.7546 0.7526 0.7526 0.7526
0.7556 0.7536 0.7536 0.7536
0.7566 0.7546 0.7546 0.7546
0.7576 0.7556 0.7556 0.7556
0.7586 0.7566 0.7566 0.7566
0.7595 0.7575 0.7575 0.7575
0.7605 0.7585 0.7585 0.7585
0.7615 0.7595 0.7595 0.7595
0.7625 0.7605 0.7605 0.7605
0.7634 0.7615 0.7615 0.7615
0.7644 0.7625 0.7625 0.7625
0.7654 0.7634 0.7634 0.7634
0.7664 0.7644 0.7644 0.7644
0.7674 0.7654 0.7654 0.7654
0.7683 0.7664 0.7664 0.7664
0.7693 0.7674 0.7674 0.7674
0.7703 0.7683 0.7683 0.7683
0.7713 0.7693 0.7693 0.7693
0.7722 0.7703 0.7703 0.7703
0.7732 0.7713 0.7713 0.7713
0.7742 0.7723 0.7723 0.7723
0.7752 0.7732 0.7732 0.7732
0.7761 0.7742 0.7742 0.7742
0.7771 0.7752 0.7752 0.7752
0.7781 0.7762 0.7762 0.7762
0.7791 0.7772 0.7772 0.7772
0.7801 0.7781 0.7781 0.7781
0.7810 0.7791 0.7791 0.7791
0.7820 0.7801 0.7801 0.7801
0.7830 0.7811 0.7811 0.7811
0.7840 0.7821 0.7821 0.7821
0.7849 0.7830 0.7830 0.7830
0.7859 0.7840 0.7840 0.7840
0.7869 0.7850 0.7850 0.7850
0.7879 0.7860 0.7860 0.7860
0.7889 0.7870 0.7870 0.7870
0.7898 0.7879 0.7879 0.7879
0.7908 0.7889 0.7889 0.7889
0.7918 0.7899 0.7899 0.7899
0.7928 0.7909 0.7909 0.7909
0.7937 0.7919 0.7919 0.7919
0.7947 0.7928 0.7928 0.7928
0.7957 0.7938 0.7938 0.7938
0.7967 0.7948 0.7948 0.7948
0.7977 0.7958 0.7958 0.7958
0.7986 0.7968 0.7968 0.7968
0.7996 0.7977 0.7977 0.7977
0.8006 0.7987 0.7987 0.7987
0.8016 0.7997 0.7997 0.7997
0.8025 0.8007 0.8007 0.8007
0.8035 0.8017 0.8017 0.8017
0.8045 0.8026 0.8026 0.8026
0.8055 0.8036 0.8036 0.8036
0.8065 0.8046 0.8046 0.8046
0.8074 0.8056 0.8056 0.8056
0.8084 0.8066 0.8066 0.8066
0.8094 0.8075 0.8075 0.8075
0.8104 0.8085 0.8085 0.8085
0.8113 0.8095 0.8095 0.8095
0.8123 0.8105 0.8105 0.8105
0.8133 0.8115 0.8115 0.8115
0.8143 0.8124 0.8124 0.8124
0.8152 0.8134 0.8134 0.8134
0.8162 0.8144 0.8144 0.8144
0.8172 0.8154 0.8154 0.8154
0.8182 0.8164 0.8164 0.8164
0.8192 0.8173 0.8173 0.8173
0.8201 0.8183 0.8183 0.8183
0.8211 0.8193 0.8193 0.8193
0.8221 0.8203 0.8203 0.8203
0.8231 0.8213 0.8213 0.8213
0.8240 0.8222 0.8222 0.8222
0.8250 0.8232 0.8232 0.8232
0.8260 0.8242 0.8242 0.8242
0.8270 0.8252 0.8252 0.8252
0.8280 0.8262 0.8262 0.8262
0.8289 0.8271 0.8271 0.8271
0.8299 0.8281 0.8281 0.8281
0.8309 0.8291 0.8291 0.8291
